X: 1457
T: Tit For Tat   #2
O: Ennis
%S: s:2 b:11(5+6)
B: O'Neill's 1850 #1457
Z: Bob Safranek, rjs@gsp.org
Z: Compacted via repeats and multiple endings [JC]
M: C|
L: 1/8
K: G
"^A"\
[|] (dc) |\
BGGB AGG2 | D(G (3{A}GFG) A2(dc) |\
((3BcB) BG ((3ABA) AB |1 cABG A2 :|2 cdef g2 |]
"^B"\
|: (Bd) | ((3efe) dB ((3efe) dB | ((3efe) dB A2Bd |\
[1 e>(B (3{c}BAB) g>(B (3{c}BAB) | cABG A2 :|\
[2 eg2e gagf | edef g2 |]
